svgs/themer.svg

<svg xmlns="http://www.w3.org/2000/svg" viewBox="0 0 256 256"><path d="M113.604 205.579c-26.56-5.78-47.323-32.968-50.038-65.522-.777-9.318.977-24.698 3.803-33.335 6.863-20.982 21.106-40.694 36.081-49.937 10.482-6.47 16.087-8.047 26.783-7.536 7.911.378 9.701.856 17.277 4.61 7.258 3.596 9.844 5.649 18.314 14.535 11.688 12.263 17.177 21.301 22.51 37.06 7.127 21.065 7.223 34.78.385 55.216-6.541 19.547-17.169 32.599-33.133 40.689-10.318 5.228-28.807 7.087-41.982 4.22Zm25.082-14.879c14.131-3.78 25.088-13.384 32.105-28.139 5.593-11.76 6.699-16.734 6.673-30-.017-9.226-.464-12.371-2.766-19.5-4.53-14.027-9.693-22.984-18.964-32.897-7.96-8.51-14.082-12.879-21.076-15.039-6-1.853-6.729-1.88-11.635-.423-14.481 4.301-31.65 22.978-38.94 42.359-2.763 7.346-5.901 22.263-5.877 27.93.029 6.46 4.255 22.145 8.071 29.956 5.855 11.981 19.424 23.151 31.608 26.019 5.747 1.352 15.204 1.231 20.801-.266Zm-12-12.32c-4.857-1.297-7.272-6.041-5.389-10.587 1.258-3.035 4.306-4.732 8.504-4.732 3.982 0 8.514-2.783 13.987-8.588 5.498-5.832 8.893-6.855 13.062-3.935 5.2 3.643 2.828 12.28-5.35 19.479-6.54 5.756-18.935 9.934-24.814 8.363Z" fill="#020202"/></svg>

<svg
    xmlns="http://www.w3.org/2000/svg"
    viewBox="0 0 256 256"
    id="vector">
    <path
        id="path_6"
        d="M 113.604 205.579 C 87.044 199.799 66.281 172.611 63.566 140.057 C 62.789 130.739 64.543 115.359 67.369 106.722 C 74.232 85.74 88.475 66.028 103.45 56.785 C 113.932 50.315 119.537 48.738 130.233 49.249 C 138.144 49.627 139.934 50.105 147.51 53.859 C 154.768 57.455 157.354 59.508 165.824 68.394 C 177.512 80.657 183.001 89.695 188.334 105.454 C 195.461 126.519 195.557 140.234 188.719 160.67 C 182.178 180.217 171.55 193.269 155.586 201.359 C 145.268 206.587 126.779 208.446 113.604 205.579 Z M 138.686 190.7 C 152.817 186.92 163.774 177.316 170.791 162.561 C 176.384 150.801 177.49 145.827 177.464 132.561 C 177.447 123.335 177 120.19 174.698 113.061 C 170.168 99.034 165.005 90.077 155.734 80.164 C 147.774 71.654 141.652 67.285 134.658 65.125 C 128.658 63.272 127.929 63.245 123.023 64.702 C 108.542 69.003 91.373 87.68 84.083 107.061 C 81.32 114.407 78.182 129.324 78.206 134.991 C 78.235 141.451 82.461 157.136 86.277 164.947 C 92.132 176.928 105.701 188.098 117.885 190.966 C 123.632 192.318 133.089 192.197 138.686 190.7 Z M 126.686 178.38 C 121.829 177.083 119.414 172.339 121.297 167.793 C 122.555 164.758 125.603 163.061 129.801 163.061 C 133.783 163.061 138.315 160.278 143.788 154.473 C 149.286 148.641 152.681 147.618 156.85 150.538 C 162.05 154.181 159.678 162.818 151.5 170.017 C 144.96 175.773 132.565 179.951 126.686 178.38 Z"
        fill="#020202"
        stroke-width="2"/>
</svg>
